!!!!SEGMENT: pl-wtm--r-2542_hertz-michal--chor-taborytow.krn
!!!cenid: 18xx:3102
!!!COM: Hertz, Michał
!!!COM-rismID: pe41023359
!!!CDT: 1844/09/28-~1918
!!!CNT: Polish
!!!OTL: Chór Taborytów
!!!PDT:
!!!AGN:
!!!YEC: Copyright 2022 Narodowy Instytut Fryderyka Chopina (https://polishscores.org)
!!!YEM: License CC-BY-4.0 (https://creativecommons.org/licenses/by/4.0)
!!!SMS-siglum: PL-Wtm
!!!SMS-shelfmark: R 2542
!!!SMS-shelfwork: W
!!!SMS-variant:
!!!SMS-altvar:
!!!NIFC-rismSourceID: 1001081943
!!!NIFC-rismChildID: 1001081943
!!!NIFC-islandoraID:
!!!URL-pdf-islandora:
!!!URL-scan:
!!!IIIF:
!!!ONB-nifc:
!!!OMD: Allo mod.
!!!AIN: 1 empty 1 tenor
!!!key:
**kern	**dynam	**kern	**text	**text	**text	**dynam
*part2	*	*part1	*	*	*	*
*staff2	*	*staff1	*	*	*	*
*Iempty	*	*Itenor	*	*	*	*
*I"Bas	*	*I"Ten	*	*	*	*
*clefF4	*	*clefGv2	*	*	*	*
*k[]	*	*k[]	*	*	*	*
*C:	*	*C:	*	*	*	*
*M4/4	*	*M4/4	*	*	*	*
*met(c)	*	*met(c)	*	*	*	*
=1	=1	=1	=1	=1	=1	=1
*^	*	*	*	*	*	*
*	*	*	*^	*	*	*	*
!!LO:TX:t=P:problem:all\middle or right:global
!	!	!	!LO:TX:t=P:problem=w źródle brak przenośnika oktawowego [#266]	!	!	!	!	!
!	!	!	!	!	!	!	!	!LO:DY:b
8C/	8C\	.	8c/	8E\	Hej	.	.	p
8E/	8E\	.	8G/	8G\	mi	.	.	.
8D#X/	8D#\	.	8F#X/	8F#\	Bo-	.	.	.
8E/	8E\	.	8G/	8G\	-żi	.	.	.
8Fn/	8Fn\	.	8A/	8A\	wo-	.	.	.
8E/	8E\	.	8G/	8G\	-jo-	.	.	.
8Dn/	8Dn\	.	8Fn/	8Fn\	-wni-	.	.	.
8C/	8ryy	.	8E/	8E\	-cy	.	.	.
=2	=2	=2	=2	=2	=2	=2	=2	=2
8C/	8C\	.	8E/	8E\	po-	.	.	.
!	!	!	!	!	!	!	!	!LO:HP:a
8C/	8C\	.	8A/	8E\	-moc	.	.	<
8C/	8C\	.	8A/	8E\	daj	.	.	.
8A 8AA/	8AA\	.	8c/	8E\	<...>	.	.	.
(>8A/	(<8AA\	.	(>8c/	4E\	bra-	.	.	.
8G#X/)	8E\)	.	8B/)	.	.	.	.	.
4G#/	4E\	.	4B/	4E\	-ciom	.	.	[[
=3	=3	=3	=3	=3	=3	=3	=3	=3
!	!	!	!	!	!	!	!	!LO:DY:a
8A 8AA/	8AA\	.	8A/	8A\	za-	.	[[Marsz	ff
4E/	4E\	.	4e/	4e\	-daj-	.	marsz	.
8D/	8D\	.	8d/	8d\	-cie	.	na	.
8C/	8C\	.	8c/	8c\	Niem-	wro-	Niem-	.
8BB/	8BB\	.	8B/	8B\	-cu	-gom	-ca	.
4AA;</	4AA\	.	4A;/	4A\	cios	.	marsz]]	.
!!LO:LB:g=original
=4	=4	=4	=4	=4	=4	=4	=4	=4
!	!	!	!	!	!	!	!	!LO:DY:b
8C/	8C\	.	8c/	8E\	.	.	.	p
8E/	8E\	.	8G/	8G\	.	.	.	.
8D#X/	8D#\	.	8F#X/	8F#\	.	.	.	.
8E/	8E\	.	8G/	8G\	.	.	.	.
8Fn/	8Fn\	.	8A/	8A\	.	.	.	.
8E/	8E\	.	8G/	8G\	.	.	.	.
8Dn/	8Dn\	.	8Fn/	8Fn\	.	.	.	.
8C/	8C\	.	8E/	8E\	.	.	.	.
=5	=5	=5	=5	=5	=5	=5	=5	=5
8C/	8C\	.	8E/	8E\	.	.	.	.
8C/	8C\	.	8A/	8E\	.	.	.	.
!	!	!	!	!	!	!	!	!LO:HP:a
8C/	8C\	.	8A/	8E\	.	.	.	<
8A/	8AA\	.	8c/	8E\	.	.	.	.
8A/	8AA\	.	8c/	8E\	.	.	.	.
8G#X/	8E\	.	8B/	8E\	.	.	.	.
4G#/	4E\	.	4B/	4E\	.	.	.	.
=6	=6	=6	=6	=6	=6	=6	=6	=6
8A/	8AA\	.	8A/	8A\	.	.	.	[
!	!	!	!	!	!	!	!	!LO:DY:a
4E/	4E\	.	4e/	4e\	.	.	.	ff
8D/	8D\	.	8d/	8d\	.	.	.	.
8C/	8C\	.	8c/	8c\	.	.	.	.
8BB/	8BB\	.	8B/	8B\	.	.	.	.
4AA;>/	4AA\	.	4A;>/	4A\	.	.	.	.
!!LO:LB:g=original
=7	=7	=7	=7	=7	=7	=7	=7	=7
!	!	!LO:DY:a:rj	!	!	!	!	!	!LO:DY:a:rj
8G/	8C\	sf	8c/	8E\	mie-	.	.	sf
8E/	8E\	.	8G/	8G\	-czów	.	.	.
8E/	8E\	.	8G/	8G\	o-	.	.	.
8E/	8E\	.	8G/	8G\	-strze	.	.	.
8F/	8F\	.	8A/	8A\	raž-	.	.	.
8F/	8F\	.	8F/	8F\	-no	.	.	.
8F/	8F\	.	8F/	8F\	w_gó-	.	.	.
8F/	8F\	.	8F/	8F\	-rę	.	.	.
=8	=8	=8	=8	=8	=8	=8	=8	=8
!	!	!	!	!	!	!	!	!LO:DY:a
8A/	8D\	.	8d/	8F#X\	rąb-	.	.	sf
8F#X/	8F#\	.	8A/	8A\	-cie	.	.	.
!	!	!	!	!	!	!	!	!LO:HP:a
8F#/	8F#\	.	8A/	8A\	śmia-	.	.	<
8F#/	8F#\	.	8A/	8A\	-ło,	.	.	.
8G/	8G\	.	8B/	8B\	tę-	.	.	.
8G/	8G\	.	8G/	8G\	-pmy	.	.	.
8G/	8G\	.	8G/	8G\	zbó-	.	.	.
8G/	8G\	.	8G/	8G\	-ja	.	.	.
=9	=9	=9	=9	=9	=9	=9	=9	=9
!	!	!	!	!	!	!	!	!LO:DY:a:rj
8B/	8E\	.	8e/	8G#X\	pal-	.	.	[ sf
8G#X/	8G#\	.	8B/	8B\	-cie	.	.	.
8G#/	8G#\	.	8B/	8B\	wło-	.	.	.
8G#/	8G#\	.	8B/	8B\	-ści	.	.	.
8A/	8A\	.	8c/	8c\	nisz-	.	.	.
8A/	8A\	.	8A/	8A\	-cie	.	.	.
8A/	8A\	.	8A/	8A\	mie-	.	.	.
8A/	8A\	.	8A/	8A\	-nie	.	.	.
!!LO:LB:g=original
=10	=10	=10	=10	=10	=10	=10	=10	=10
[2G/	[2G\	.	[>2B/	[<2G\	precz	[[by	.	.
8G/]	8G\]	<	8B/]	8G\]	.	.	.	.
8G/	8G\	.	8B^>/	8G\	z_li-	nie	.	.
8G/	8G\	.	8c^>/	8A\	-toś-	pow-	.	.
8G/	8G\	[[	8d^>/	8B\	-cią	-stał	.	.
*v	*v	*	*	*	*	*	*	*
=11	=11	=11	=11	=11	=11	=11	=11
1G;;	.	1d;>	1B;<	precz!	wróg]]	.	.
=12	=12	=12	=12	=12	=12	=12	=12
*^	*	*	*	*	*	*	*
!	!	!LO:DY:a	!	!	!	!	!	!LO:DY:a
8c/	8C\	sf	8c/	8c\	.	.	.	sf
8E/	8E\	.	8G/	8G\	.	.	.	.
8E/	8E\	.	8G/	8G\	.	.	.	.
8E/	8E\	.	8G/	8G\	.	.	.	.
!	!	!	!	!	!	!	!	!LO:DY:a
8F/	8F\	sf	8A/	8A\	.	.	.	sf
8F/	8F\	.	8F/	8F\	.	.	.	.
8F/	8F\	.	8F/	8F\	.	.	.	.
8F/	8F\	.	8F/	8F\	.	.	.	.
=13	=13	=13	=13	=13	=13	=13	=13	=13
!	!	!LO:DY:a	!	!	!	!	!	!LO:DY:a
8A/	8D\	sf	8d 8F#X/	8F#\	.	.	.	sf
8F#X/	8F#\	.	8A/	8A\	.	.	.	.
8F#/	8F#\	.	8A/	8A\	.	.	.	.
8F#/	8F#\	.	8A/	8A\	.	.	.	.
!	!	!	!	!	!	!	!	!LO:DY:a
8G/	8G\	sf	8B/	8G\	.	.	.	sf
8G/	8G\	.	8G/	8G\	.	.	.	.
8G/	8G\	.	8G/	8G\	.	.	.	.
8G/	8G\	.	8G/	8G\	.	.	.	.
!!LO:LB:g=original
=14	=14	=14	=14	=14	=14	=14	=14	=14
8C/	8C\	.	8e/	8e 8G\	da	.	.	.
8E/	8E\	.	8c/	8G\	nam	.	.	.
8F 8D/	8D\	.	8B/	8G\	da	.	.	.
8E 8C/	8C\	.	8c/	8G\	zwy-	.	.	.
4G^>/	4G\	.	4e 4c 4G^>/	4G\	-cię-	.	.	.
4F 4GG^>/	4GG\	.	4d 4B 4G^>/	4G\	-żyć	.	.	.
=15	=15	=15	=15	=15	=15	=15	=15	=15
!LO:TX:b:Bi:t=ritenuto	!	!	!	!	!	!	!	!
8E/	8C\	.	8c/	8G\	da	.	.	.
8C^</	8C\	.	8c^>/	8c\	nam	.	.	.
8BB^</	8BB\	.	8B^>/	8B\	da	.	.	.
8C^</	8C\	.	8c^>/	8c\	zwy-	.	.	.
4G^>/	4G\	.	4e 4c 4G^>\	2ryy	-cię-	.	.	.
4F 4GG^>\	4ryy	.	4d 4B 4G^>\	.	-żyć	.	.	.
*v	*v	*	*	*	*	*	*	*
*	*	*v	*v	*	*	*	*
=16	=16	=16	=16	=16	=16	=16
1E 1C;<	.	1c 1G;>	Bóg	.	.	.
==	==	==	==	==	==	==
*-	*-	*-	*-	*-	*-	*-
!!!system-decoration: {(s1,s2)}
!!!RDF**kern: > = above
!!!RDF**kern: < = below
!!!RDF**dynam: > = "dim", fontstyle= "bold-italic"
!!!RDF**dynam: < = "cresc", fontstyle= "bold-italic"
!!!RDF**kern: | = vertical stroke
!!!RDF**kern: N = linked
!!!RDF**kern: i = editorial accidental
!!!RDF**kern: l = terminal long
!!!ENC: Andrzej Kubiczek
!!!END: 2021-11-01
!!!EED: Wojciech Jakubiak-Danek
!!!EEV: 2021-11-04
